img/img_desktop/instagram.svg

<svg width="46" height="46" viewBox="0 0 46 46" fill="none" xmlns="http://www.w3.org/2000/svg">
<g clip-path="url(#clip0)">
<path d="M18.7503 22.6981C18.7503 25.0976 20.6954 27.0427 23.0949 27.0427C25.4944 27.0427 27.4395 25.0976 27.4395 22.6981C27.4395 20.2986 25.4944 18.3535 23.0949 18.3535C20.6954 18.3535 18.7503 20.2986 18.7503 22.6981Z" fill="#CACACA"/>
<path d="M12.9345 15.0115C13.1433 14.4456 13.4765 13.9333 13.9095 13.5129C14.3299 13.0799 14.8418 12.7467 15.4081 12.5379C15.8674 12.3595 16.5573 12.1472 17.8281 12.0894C19.2027 12.0267 19.6149 12.0132 23.095 12.0132C26.5754 12.0132 26.9876 12.0263 28.3619 12.089C29.6326 12.1472 30.3229 12.3595 30.7818 12.5379C31.3481 12.7467 31.8604 13.0799 32.2805 13.5129C32.7134 13.9333 33.0466 14.4452 33.2558 15.0115C33.4342 15.4708 33.6465 16.1611 33.7043 17.4318C33.767 18.8061 33.7805 19.2183 33.7805 22.6987C33.7805 26.1788 33.767 26.591 33.7043 27.9657C33.6465 29.2364 33.4342 29.9263 33.2558 30.3856C33.0466 30.9519 32.7138 31.4638 32.2808 31.8842C31.8604 32.3172 31.3485 32.6504 30.7822 32.8592C30.3229 33.0379 29.6326 33.2502 28.3619 33.3081C26.9876 33.3708 26.5758 33.3839 23.0953 33.3839C19.6145 33.3839 19.2024 33.3708 17.8284 33.3081C16.5576 33.2502 15.8674 33.0379 15.4081 32.8592C14.2714 32.4207 13.373 31.5223 12.9345 30.3856C12.7561 29.9263 12.5438 29.2364 12.4856 27.9657C12.4229 26.591 12.4098 26.1788 12.4098 22.6987C12.4098 19.2183 12.4229 18.8061 12.4856 17.4318C12.5435 16.1611 12.7558 15.4708 12.9345 15.0115ZM23.095 29.3912C26.7916 29.3912 29.7882 26.395 29.7882 22.6984C29.7882 19.0018 26.7916 16.0055 23.095 16.0055C19.3987 16.0055 16.4021 19.0018 16.4021 22.6984C16.4021 26.395 19.3987 29.3912 23.095 29.3912ZM16.1375 17.305C17.0013 17.305 17.7016 16.6047 17.7016 15.7409C17.7016 14.8771 17.0013 14.1768 16.1375 14.1768C15.2737 14.1768 14.5734 14.8771 14.5734 15.7409C14.5738 16.6047 15.2737 17.305 16.1375 17.305Z" fill="#CACACA"/>
<path d="M23.0949 0C35.6289 0 45.7932 10.1643 45.7932 22.6983C45.7932 35.2323 35.6289 45.3966 23.0949 45.3966C10.5609 45.3966 0.396618 35.2323 0.396618 22.6983C0.396618 10.1643 10.5609 0 23.0949 0ZM10.1397 28.0719C10.2028 29.4594 10.4234 30.4066 10.7455 31.2358C11.4226 32.9866 12.8066 34.3706 14.5574 35.0477C15.3862 35.3698 16.3338 35.5901 17.721 35.6535C19.1109 35.7168 19.5549 35.7321 23.0946 35.7321C26.6346 35.7321 27.0783 35.7168 28.4685 35.6535C29.8556 35.5901 30.8032 35.3698 31.6321 35.0477C32.5021 34.7204 33.2897 34.2075 33.9408 33.5442C34.6037 32.8934 35.1167 32.1055 35.444 31.2358C35.7661 30.407 35.9867 29.4594 36.0497 28.0722C36.1138 26.682 36.1287 26.238 36.1287 22.6983C36.1287 19.1586 36.1138 18.7146 36.0501 17.3247C35.987 15.9372 35.7668 14.99 35.4447 14.1608C35.1174 13.2911 34.6041 12.5032 33.9408 11.8524C33.29 11.1891 32.5021 10.6762 31.6324 10.3489C30.8032 10.0268 29.856 9.80651 28.4685 9.74313C27.0786 9.67975 26.6346 9.66451 23.0949 9.66451C19.5552 9.66451 19.1112 9.67975 17.7213 9.74348C16.3338 9.80651 15.3866 10.0268 14.5574 10.3485C13.6877 10.6758 12.8998 11.1891 12.2487 11.8524C11.5858 12.5035 11.0725 13.2911 10.7455 14.1608C10.4231 14.99 10.2028 15.9372 10.1394 17.3247C10.076 18.7146 10.0611 19.1586 10.0611 22.6983C10.0611 26.238 10.076 26.682 10.1397 28.0719Z" fill="#CACACA"/>
</g>
<defs>
<clipPath id="clip0">
<rect width="45.3966" height="45.3966" fill="white" transform="matrix(-1 0 0 1 45.7932 0)"/>
</clipPath>
</defs>
</svg>

<svg width="46" height="46" fill="none" xmlns="http://www.w3.org/2000/svg"><g clip-path="url(#clip0)" fill="#CACACA"><path d="M18.75 22.698a4.345 4.345 0 108.69 0 4.345 4.345 0 00-8.69 0z"/><path d="M12.934 15.011a4.037 4.037 0 01.976-1.498c.42-.433.932-.766 1.498-.975.46-.178 1.15-.39 2.42-.449 1.375-.062 1.787-.076 5.267-.076 3.48 0 3.893.013 5.267.076 1.27.058 1.96.27 2.42.449a4.031 4.031 0 011.499.975c.432.42.766.932.975 1.498.178.46.39 1.15.448 2.42.063 1.375.077 1.787.077 5.268 0 3.48-.014 3.892-.077 5.267-.057 1.27-.27 1.96-.448 2.42a4.038 4.038 0 01-.975 1.498c-.42.433-.932.766-1.499.975-.46.179-1.15.391-2.42.45-1.374.062-1.786.075-5.267.075-3.48 0-3.893-.013-5.267-.076-1.27-.058-1.96-.27-2.42-.449a4.316 4.316 0 01-2.473-2.473c-.179-.46-.391-1.15-.45-2.42-.062-1.375-.075-1.787-.075-5.267 0-3.48.013-3.893.076-5.267.057-1.27.27-1.961.448-2.42zm10.161 14.38a6.693 6.693 0 100-13.385 6.693 6.693 0 000 13.385zm-6.957-12.086a1.564 1.564 0 100-3.128 1.564 1.564 0 000 3.128z"/><path d="M23.095 0c12.534 0 22.698 10.164 22.698 22.698S35.63 45.397 23.095 45.397.397 35.232.397 22.698C.397 10.164 10.56 0 23.095 0zM10.14 28.072c.063 1.387.283 2.335.605 3.164a6.664 6.664 0 003.812 3.812c.83.322 1.777.542 3.164.605 1.39.064 1.834.08 5.374.08 3.54 0 3.983-.016 5.373-.08 1.388-.063 2.335-.283 3.164-.605a6.385 6.385 0 002.309-1.504 6.388 6.388 0 001.503-2.308c.322-.829.543-1.777.606-3.164.064-1.39.079-1.834.079-5.374 0-3.54-.015-3.983-.079-5.373-.063-1.388-.283-2.335-.605-3.164a6.385 6.385 0 00-1.504-2.309 6.384 6.384 0 00-2.309-1.503c-.829-.322-1.776-.542-3.164-.606-1.39-.063-1.833-.078-5.373-.078s-3.984.015-5.374.078c-1.387.064-2.334.284-3.164.605-.87.328-1.657.841-2.308 1.504a6.387 6.387 0 00-1.504 2.309c-.322.829-.542 1.776-.606 3.164-.063 1.39-.078 1.834-.078 5.373 0 3.54.015 3.984.079 5.374z"/></g><defs><clipPath id="clip0"><path fill="#fff" transform="matrix(-1 0 0 1 45.793 0)" d="M0 0h45.397v45.397H0z"/></clipPath></defs></svg>
